YHN.DEV/Client/yohanapp/src/Images/icons/instagram.svg

<svg width="25" height="25" xmlns="http://www.w3.org/2000/svg">
 <g>
  <title>background</title>
  <rect x="-1" y="-1" width="27" height="27" id="canvas_background" fill="none"/>
 </g>

 <g>
  <title>Layer 1</title>
  <g id="surface1">
   <path d="m12.605469,0c-3.425781,0 -3.855469,0.015625 -5.199219,0.074219c-1.046875,0.023437 -2.078125,0.222656 -3.058594,0.585937c-0.839844,0.316406 -1.601562,0.8125 -2.230468,1.453125c-0.640626,0.632813 -1.140626,1.390625 -1.457032,2.234375c-0.367187,0.976563 -0.566406,2.011719 -0.585937,3.058594c-0.058594,1.34375 -0.074219,1.773438 -0.074219,5.195312c0,3.421876 0.015625,3.851563 0.074219,5.191407c0.023437,1.050781 0.222656,2.082031 0.585937,3.0625c0.316406,0.835937 0.8125,1.601562 1.453125,2.226562c0.632813,0.648438 1.390625,1.144531 2.234375,1.457031c0.976563,0.367188 2.011719,0.5625 3.058594,0.585938c1.34375,0.0625 1.773438,0.078125 5.195312,0.078125c3.421876,0 3.851563,-0.015625 5.191407,-0.078125c1.050781,-0.023438 2.085937,-0.21875 3.0625,-0.585938c1.695312,-0.65625 3.035156,-1.996093 3.691406,-3.6875c0.367187,-0.980468 0.5625,-2.011718 0.585937,-3.0625c0.0625,-1.339843 0.078126,-1.769531 0.078126,-5.191406c0,-3.421875 -0.015626,-3.851562 -0.078126,-5.195312c-0.023437,-1.046875 -0.21875,-2.082032 -0.585937,-3.058594c-0.316406,-0.84375 -0.8125,-1.601562 -1.453125,-2.234375c-0.628906,-0.640625 -1.390625,-1.136719 -2.230469,-1.453125c-0.984375,-0.363281 -2.019531,-0.5625 -3.070312,-0.582031c-1.34375,-0.058594 -1.769531,-0.074219 -5.195313,-0.074219l0.007813,0zm-1.136719,2.273438l1.136719,0c3.363281,0 3.761719,0.011718 5.085937,0.070312c0.800782,0.011719 1.589844,0.15625 2.34375,0.433594c0.542969,0.203125 1.039063,0.523437 1.445313,0.945312c0.417969,0.402344 0.742187,0.898438 0.945312,1.449219c0.273438,0.746094 0.421875,1.539063 0.433594,2.335937c0.058594,1.328126 0.070313,1.726563 0.070313,5.089844c0,3.367188 -0.011719,3.765625 -0.070313,5.089844c-0.011719,0.800781 -0.160156,1.589844 -0.433594,2.339844c-0.425781,1.097656 -1.296875,1.964844 -2.390625,2.390625c-0.753906,0.277343 -1.542968,0.425781 -2.34375,0.433593c-1.324218,0.0625 -1.722656,0.074219 -5.085937,0.074219c-3.367188,0 -3.765625,-0.011719 -5.097657,-0.074219c-0.796874,-0.007812 -1.589843,-0.160156 -2.335937,-0.433593c-0.550781,-0.203125 -1.046875,-0.523438 -1.449219,-0.941407c-0.417968,-0.40625 -0.742187,-0.902343 -0.941406,-1.449218c-0.28125,-0.75 -0.425781,-1.539063 -0.4375,-2.339844c-0.058594,-1.332031 -0.070312,-1.726562 -0.070312,-5.09375c0,-3.363281 0.011718,-3.761719 0.070312,-5.089844c0.007812,-0.796875 0.15625,-1.589844 0.4375,-2.339844c0.199219,-0.546874 0.523438,-1.042968 0.941406,-1.445312c0.402344,-0.421875 0.898438,-0.742188 1.449219,-0.945312c0.746094,-0.277344 1.539063,-0.425782 2.335937,-0.433594c1.167969,-0.050782 1.617188,-0.066406 3.960938,-0.070313l0,0.003907zm7.859375,2.089843c-0.835937,0 -1.515625,0.675781 -1.515625,1.511719c0,0.839844 0.679688,1.515625 1.519531,1.515625c0.832031,-0.003906 1.511719,-0.679687 1.511719,-1.515625c0,-0.402344 -0.164062,-0.789062 -0.445312,-1.070312c-0.285157,-0.285157 -0.671876,-0.441407 -1.070313,-0.441407zm-6.722656,1.769531c-3.578125,0 -6.472657,2.890626 -6.472657,6.46875c0,3.574219 2.894532,6.46875 6.472657,6.46875c3.570312,0 6.46875,-2.894531 6.46875,-6.46875c-0.003907,-3.574218 -2.898438,-6.46875 -6.46875,-6.46875zm0,2.265626c2.320312,-0.003907 4.199219,1.878906 4.203125,4.199218c0,2.320313 -1.875,4.199219 -4.195313,4.203125c-2.324219,0 -4.207031,-1.878906 -4.207031,-4.199219c0.007812,-2.316406 1.882812,-4.191406 4.199219,-4.195312l0,-0.007812zm0,0" fill="#4682b4" fill-rule="nonzero" id="svg_1"/>
  </g>
 </g>
</svg>

<?xml version="1.0" encoding="UTF-8"?>
<svg xmlns="http://www.w3.org/2000/svg" xmlns:xlink="http://www.w3.org/1999/xlink" width="25pt" height="25pt" viewBox="0 0 25 25" version="1.1">
<g id="surface1">
<path style=" stroke:none;fill-rule:nonzero;fill:rgb(0%,0%,0%);fill-opacity:1;" d="M 12.605469 0 C 9.179688 0 8.75 0.015625 7.40625 0.0742188 C 6.359375 0.0976562 5.328125 0.296875 4.347656 0.660156 C 3.507812 0.976562 2.746094 1.472656 2.117188 2.113281 C 1.476562 2.746094 0.976562 3.503906 0.660156 4.347656 C 0.292969 5.324219 0.09375 6.359375 0.0742188 7.40625 C 0.015625 8.75 0 9.179688 0 12.601562 C 0 16.023438 0.015625 16.453125 0.0742188 17.792969 C 0.0976562 18.84375 0.296875 19.875 0.660156 20.855469 C 0.976562 21.691406 1.472656 22.457031 2.113281 23.082031 C 2.746094 23.730469 3.503906 24.226562 4.347656 24.539062 C 5.324219 24.90625 6.359375 25.101562 7.40625 25.125 C 8.75 25.1875 9.179688 25.203125 12.601562 25.203125 C 16.023438 25.203125 16.453125 25.1875 17.792969 25.125 C 18.84375 25.101562 19.878906 24.90625 20.855469 24.539062 C 22.550781 23.882812 23.890625 22.542969 24.546875 20.851562 C 24.914062 19.871094 25.109375 18.839844 25.132812 17.789062 C 25.195312 16.449219 25.210938 16.019531 25.210938 12.597656 C 25.210938 9.175781 25.195312 8.746094 25.132812 7.402344 C 25.109375 6.355469 24.914062 5.320312 24.546875 4.34375 C 24.230469 3.5 23.734375 2.742188 23.09375 2.109375 C 22.464844 1.46875 21.703125 0.972656 20.863281 0.65625 C 19.878906 0.292969 18.84375 0.09375 17.792969 0.0742188 C 16.449219 0.015625 16.023438 0 12.597656 0 Z M 11.46875 2.273438 L 12.605469 2.273438 C 15.96875 2.273438 16.367188 2.285156 17.691406 2.34375 C 18.492188 2.355469 19.28125 2.5 20.035156 2.777344 C 20.578125 2.980469 21.074219 3.300781 21.480469 3.722656 C 21.898438 4.125 22.222656 4.621094 22.425781 5.171875 C 22.699219 5.917969 22.847656 6.710938 22.859375 7.507812 C 22.917969 8.835938 22.929688 9.234375 22.929688 12.597656 C 22.929688 15.964844 22.917969 16.363281 22.859375 17.6875 C 22.847656 18.488281 22.699219 19.277344 22.425781 20.027344 C 22 21.125 21.128906 21.992188 20.035156 22.417969 C 19.28125 22.695312 18.492188 22.84375 17.691406 22.851562 C 16.367188 22.914062 15.96875 22.925781 12.605469 22.925781 C 9.238281 22.925781 8.839844 22.914062 7.507812 22.851562 C 6.710938 22.84375 5.917969 22.691406 5.171875 22.417969 C 4.621094 22.214844 4.125 21.894531 3.722656 21.476562 C 3.304688 21.070312 2.980469 20.574219 2.78125 20.027344 C 2.5 19.277344 2.355469 18.488281 2.34375 17.6875 C 2.285156 16.355469 2.273438 15.960938 2.273438 12.59375 C 2.273438 9.230469 2.285156 8.832031 2.34375 7.503906 C 2.351562 6.707031 2.5 5.914062 2.78125 5.164062 C 2.980469 4.617188 3.304688 4.121094 3.722656 3.71875 C 4.125 3.296875 4.621094 2.976562 5.171875 2.773438 C 5.917969 2.496094 6.710938 2.347656 7.507812 2.339844 C 8.675781 2.289062 9.125 2.273438 11.46875 2.269531 Z M 19.328125 4.363281 C 18.492188 4.363281 17.8125 5.039062 17.8125 5.875 C 17.8125 6.714844 18.492188 7.390625 19.332031 7.390625 C 20.164062 7.386719 20.84375 6.710938 20.84375 5.875 C 20.84375 5.472656 20.679688 5.085938 20.398438 4.804688 C 20.113281 4.519531 19.726562 4.363281 19.328125 4.363281 Z M 12.605469 6.132812 C 9.027344 6.132812 6.132812 9.023438 6.132812 12.601562 C 6.132812 16.175781 9.027344 19.070312 12.605469 19.070312 C 16.175781 19.070312 19.074219 16.175781 19.074219 12.601562 C 19.070312 9.027344 16.175781 6.132812 12.605469 6.132812 Z M 12.605469 8.398438 C 14.925781 8.394531 16.804688 10.277344 16.808594 12.597656 C 16.808594 14.917969 14.933594 16.796875 12.613281 16.800781 C 10.289062 16.800781 8.40625 14.921875 8.40625 12.601562 C 8.414062 10.285156 10.289062 8.410156 12.605469 8.40625 Z M 12.605469 8.398438 "/>
</g>
</svg>
